X:574
T:The Laughing Vicar
C:John Young, 1718
S:Colin Hume's website,  colinhume.com  - chords can also be printed below the stave.
Q:3/8=120
M:6/8
R:Jig
L:1/8
%%MIDI ratio 3 1
K:D
P:A
|: A//B//c/ | "D"dAG F2E | "Bm"D2D DEF | "A"E2E EFG | "D"F2F FGA |\
"Bm"B2B B>c B/A/ | "E7"^G2E "A"A2B | "A"cde "E7"E2^G | "A"A2A A2 :|
P:B
|: A | "A"e2e e>fe/d/ | "/"c2B A2A | "A7"EFG AGA | "D"F2E D2A |\
"Bm"d2d d>ed/c/ | "G"B2G G2B | "Em"e2f g>fe/d/ | "A"c3 g3 |
"Bm"fBf "A"eAc | "D"d2d d2A/G/ | "D"FDF "A"ECE | "D"FDF "A"EAG | "Bm"F>ED "A"A,GE | "D"D2D D2 :|

